!!!OTL: The banks of the bann, S. 46
!!!id: I0507
**kern
*clefG2
*k[f#c#]
*D:
{8d
8e
=1
4f#
2a
8b
8cc#
=2
4dd
2dd
8b
8a
=3
4f#
2f#
4e
=4
2.d}
=5
{8cc#
8dd
=6
4ee
2ee
8dd
8cc#
=7
4dd
2dd
4dd
=8
4dd
2a
8f#
8e
=9
2.f#}
=10
{8cc#
8dd
=11
4ee
2ee
8dd
8cc#
=12
4dd
2dd
4dd
=13
4dd
2a
8f#
8e
=14
8f#
8e
2d}
=15
{8d
8f#
=16
4a
2a
8b
8cc#
=17
4dd
2dd
8b
8a
=18
4f#
2f#
4e
=19
2.d}
==
*-
!!!minrhy: 8
!!!meters: 4/4 ]  ZZ[4
!!!cut: The banks of the bann, S. 46
!!!reg: Irland
!!!trd: O BOYLE, Sean: 25 Irish Folksongs, Dublin 1976
!!!rhy1: XX  X_X__XX  X_X__XX  X_X__X_  X__.
!!!rhy2: XX  X_X__XX  X_X__X_  X_X__XX  X__.
!!!key: I0507  08  D 4/4 ]  ZZ[4
!!!mod: SECHSTONSKALA DUR ?]  AMBITUS[9
!!!kad: 1311
!!!akz: 35+1+13311_+2+2+1+1+1533_+2+2+1+1+1531_55+1+13311_
!!!fot: 'a__b__bw_aw_
!!!for: 'a__b__bw_a__
!!!fok: '^__^d_^d_^__
!! PHRAS[AUFTAKTIG]
!!!fkt: Verf&uuml;hrung
!! IRISCHE VKL.
!! PR[8] 2K[5] 2G[24] 3K[15] 3G[2] 4A[2] 4Ü[0] 5A[0] 6K[0] 6G[0]
!! 7K[2] 7G[0] 8A[0] MEHR[0] SI[48] ABS[62] SR[29] SP[19]
!! ST[16] 2k[3] 2g[15] 3k[13] 3g[3] 4d[6] 4ü[0] 5d[3] 6k[0] 6g[0]
!! 7k[0] 7g[0] 8d[0] mehr[0] si[44] dm[+4] sr[18] sp[26]
!! 1F[43] 2F[35] 3F[5] 4F[0] LF[0] 2P[11] 3P[6] 4P[0] TRI[0] DF[5] AB[63]
!! TF[0] U3K[0] U3[3] U4[0] U4Ü[0] U5[8] U6K[0] U6[11] U7K[0] U7[0]
!! N1[22] N2K[0] N2[11] N3K[0] N3[14] N4[8] N4Ü[0] N5[19] N6K[0] N6[3]
!!!n7k: 0] N7[0] O1[0] O2K[0] O2[0] O3K[0] O3[0] HÖ[0
!!!RNB: symbol: &uuml;  = u umlaut (UTF-8: Ã¼)
